(Generated with: DXF2GCODE, Version: PyQt4 Beta, Date: $Date:: 2015-02-04 13:44:52#$)
(Created from file: /home/lap/projects/librecad/parkingTiles/Diag1.42_1.dxf)
(Time: Wed May 27 18:42:27 2015)
G21 (Units in millimeters) G90 (Absolute programming) G64 (Default cutting) G17 (XY plane) G40 (Cancel radius comp.) G49 (Cancel length comp.)
G0 Z  15.000 

(*** LAYER: 0 ***)
T1 M6
S6000

(* SHAPE Nr: 0 *)
G0 X  59.280 Y  41.977
M3 M8
G42
F400
G1 X  59.846 Y  41.129
G2 X  58.149 Y  41.129 I  -0.849 J   0.849
G0 Z   3.000 
F150
G1 Z  -1.500
F400
G1 X  22.311 Y  76.966
G1 X  58.149 Y 112.804
G1 X  93.987 Y 148.642
G1 X 129.824 Y 112.804
G1 X 165.662 Y  76.966
G1 X 129.824 Y  41.129
G1 X  93.987 Y   5.291
G1 X  58.149 Y  41.129
F150
G1 Z   3.000
G0 Z  15.000 
G40
M9 M5

(* SHAPE Nr: 1 *)
G0 X 268.290 Y  75.835
M3 M8
G42
F400
G1 X 267.441 Y  75.269
G2 X 267.441 Y  76.966 I   0.849 J   0.849
G0 Z   3.000 
F150
G1 Z  -1.500
F400
G1 X 303.279 Y 112.804
G1 X 339.117 Y 148.642
G1 X 374.954 Y 112.804
G1 X 410.792 Y  76.966
G1 X 374.954 Y  41.129
G1 X 339.117 Y   5.291
G1 X 303.279 Y  41.129
G1 X 267.441 Y  76.966
F150
G1 Z  -3.000
F400
G1 X 303.279 Y 112.804
G1 X 339.117 Y 148.642
G1 X 374.954 Y 112.804
G1 X 410.792 Y  76.966
G1 X 374.954 Y  41.129
G1 X 339.117 Y   5.291
G1 X 303.279 Y  41.129
G1 X 267.441 Y  76.966
F150
G1 Z   3.000
G0 Z  15.000 
G40
M9 M5

(* SHAPE Nr: 2 *)
G0 X  92.855 Y -97.337
M3 M8
G42
F400
G1 X  92.290 Y -96.488
G2 X  93.987 Y -96.488 I   0.849 J  -0.849
G0 Z   3.000 
F150
G1 Z  -1.500
F400
G1 X 129.824 Y-132.326
G1 X 165.662 Y-168.164
G1 X 129.824 Y-204.002
G1 X  93.987 Y-239.839
G1 X  58.149 Y-204.002
G1 X  22.311 Y-168.164
G1 X  58.149 Y-132.326
G1 X  93.987 Y -96.488
F150
G1 Z  -3.000
F400
G1 X 129.824 Y-132.326
G1 X 165.662 Y-168.164
G1 X 129.824 Y-204.002
G1 X  93.987 Y-239.839
G1 X  58.149 Y-204.002
G1 X  22.311 Y-168.164
G1 X  58.149 Y-132.326
G1 X  93.987 Y -96.488
F150
G1 Z   3.000
G0 Z  15.000 
G40
M9 M5

(* SHAPE Nr: 3 *)
G0 X 268.290 Y-169.295
M3 M8
G42
F400
G1 X 267.441 Y-169.861
G2 X 267.441 Y-168.164 I   0.849 J   0.849
G0 Z   3.000 
F150
G1 Z  -1.500
F400
G1 X 303.279 Y-132.326
G1 X 339.117 Y -96.488
G1 X 374.954 Y-132.326
G1 X 410.792 Y-168.164
G1 X 374.954 Y-204.002
G1 X 339.117 Y-239.839
G1 X 303.279 Y-204.002
G1 X 267.441 Y-168.164
F150
G1 Z  -3.000
F400
G1 X 303.279 Y-132.326
G1 X 339.117 Y -96.488
G1 X 374.954 Y-132.326
G1 X 410.792 Y-168.164
G1 X 374.954 Y-204.002
G1 X 339.117 Y-239.839
G1 X 303.279 Y-204.002
G1 X 267.441 Y-168.164
F150
G1 Z   3.000
G0 Z  15.000 
G40
M9 M5

(* SHAPE Nr: 4 *)
G0 X 145.725 Y -46.730
M3 M8
G42
F400
G1 X 144.876 Y -47.296
G2 X 144.876 Y -45.599 I   0.849 J   0.849
G0 Z   3.000 
F150
G1 Z  -1.500
F400
G1 X 216.552 Y  26.077
G1 X 288.227 Y -45.599
G1 X 216.552 Y-117.274
G1 X 144.876 Y -45.599
F150
G1 Z  -3.000
F400
G1 X 216.552 Y  26.077
G1 X 288.227 Y -45.599
G1 X 216.552 Y-117.274
G1 X 144.876 Y -45.599
F150
G1 Z   3.000
G0 Z  15.000 
G40
M9 M5

(* SHAPE Nr: 5 *)
G0 X -29.978 Y  25.877
M3 M8
G41
F400
G1 X -29.778 Y  24.877
G3 X -28.578 Y  26.077 I  -0.000 J   1.200
G0 Z   3.000 
F150
G1 Z  -1.500
F400
G1 X -28.578 Y 127.856
G1 X  43.097 Y 199.531
G1 X 144.876 Y 199.531
G1 X 216.552 Y 127.856
G1 X 288.227 Y 199.531
G1 X 390.006 Y 199.531
G1 X 461.682 Y 127.856
G1 X 461.682 Y  26.077
G1 X 390.006 Y -45.599
G1 X 461.682 Y-117.274
G1 X 461.682 Y-219.053
G1 X 390.006 Y-290.729
G1 X 288.227 Y-290.729
G1 X 216.552 Y-219.053
G1 X 144.876 Y-290.729
G1 X  43.097 Y-290.729
G1 X -28.578 Y-219.053
G1 X -28.578 Y-117.274
G1 X  43.097 Y -45.599
G1 X -28.578 Y  26.077
F150
G1 Z  -3.000
F400
G1 X -28.578 Y 127.856
G1 X  43.097 Y 199.531
G1 X 144.876 Y 199.531
G1 X 216.552 Y 127.856
G1 X 288.227 Y 199.531
G1 X 390.006 Y 199.531
G1 X 461.682 Y 127.856
G1 X 461.682 Y  26.077
G1 X 390.006 Y -45.599
G1 X 461.682 Y-117.274
G1 X 461.682 Y-219.053
G1 X 390.006 Y-290.729
G1 X 288.227 Y-290.729
G1 X 216.552 Y-219.053
G1 X 144.876 Y-290.729
G1 X  43.097 Y-290.729
G1 X -28.578 Y-219.053
G1 X -28.578 Y-117.274
G1 X  43.097 Y -45.599
G1 X -28.578 Y  26.077
F150
G1 Z   3.000
G0 Z  15.000 
G40
M9 M5
G0 X   0.000 Y   0.000
M2 (Program end)